X:1
T:One Too Many
T:Tom Brier https://musescore.com/user/31487787/scores/5494756 Transcribed from: https://www.youtube.com/watch?v=Fwl4gvratoM 
T:One Too Many
C:Tom Brier
%%score { ( 1 3 ) | ( 2 4 ) }
L:1/8
Q:1/2=87
M:4/4
K:F
V:1 treble nm="Piano" snm="Pno."
V:3 treble 
V:2 bass 
V:4 bass 
V:1
"^Swing 8ths.""^Allegro" (3EGE CD EG (3cd^d | (3ege cd egb=b | c'2 bg- ged_d | c2 z2 [cegc']4 |: %4
 (3bd'b d^d [ea] [cg]2 [Acf]- | [Acf][Gg][Aa][cc'] [ee'] [d_ad']3 | (3bd'b d^d [ea] [cg]2 [Acf]- | %7
 [Acf][Gg][Aa][cc'] [ee'] [ff']2 [gbd'g']- | [gbd'g'][ff'][dd'][Bb] [Gg] [^c^c']2 [dfad']- | %9
 [dfad'][cc'][Aa][Gg] [Ff] [Acfa]2 [G=Bdfg]- | [GBdfg]G (3[=Be]dB (3[fa]gd (3[f=b]ge' | %11
 (3[bd']c'[ea] (3g[Be]g (3[Bd]g[B_d] (3cc'a | (3bd'b d^d [ea] [cg]2 [Acf]- | %13
 [Acf][Gg][Aa][cc'] [ee'] [d_ad']3 | (3bd'b d^d [ea] [cg]2 [Ac_e_g]- | %15
 [Aceg] [^G=Bdf]2 [=G_B_d_f]- [GBdf] [^FAc_e]2 [G^c]- | %16
 [Gc] [Fd]2 [_A_df_a]- [Adfa] [Bb]2 [=cf=ac']- | [cfac']c (3afc'!8va(! (3af'c' (3c''a'f'!8va)! | %18
 (3_d'bf (3_dfd' c' [Bea]2 [Acf]- |1 (3[Acf]ga (3[^dd']^ga [ebc']2 a (3=g/^g/a/ :|2 %20
 [Acf][cfc']a[dfad']- [dfad'] [cfac']2 [=Bf_a=b]- |: [Bfab][D_A]F[DF=B]- [DFB][Ad][FB][Bf]- | %22
 [Bf][d_a][=Bf][df=b]- [dfb][ec'][d^g][c=a]- | [ca][ff']=bc' [ee'] [dd']2 [^c^c']- | %24
 [cc']a[dd'][e^f=c']- [efc'] [=cfa]2 [Bd]- | dagd f g2 e- | [Be]!8va(!d'[ebc']g c' [ebd']2 f' | %27
 [c'g']a (3d'c'f!8va)! [cg]A (3dcF |"^l.h.""^r.h." (3G^GA (3c^cd (3g^ga (3[fc']d'[f=b] | %29
 z [D_A] F[DF=B]- [DFB][Ad][FB][Bf]- | [Bf][d_a][=Bf][df=b]- [dfb][ec'][d^g][c=a]- | %31
 [ca][ff']=bc' [ee'] [dd']2 [^c^c']- | [cc']a[dd'][e^f=c']- [efc'] [=cfa]2 [Bd]- | dagd f g2 e- | %34
 [Be]!8va(!d'[ebc']g c' [ebd']2 [_df]- | [df]c'[_dfb]g' [b_d'f'] [g'g'']2 [f'a'c''f'']- |1 %36
 [f'a'c''f'']!8va)![cfc']a[dfad']- [dfad'] [cfac']2 [=Bf_a=b] :|2 %37
!8va(! [f'a'c''f'']2!8va)! z2 [FAc_ef]4 |:[K:Bb] [=E,=E] [F,F]2 [DFBd]- [DFBd]4!8va(! | %39
 z!8va)! [F,F] [G,G][A,A] [Dd] [CEFAc]3 | [=E,=E] [F,F]2 [DFG=Bd]- [DFGBd]4!8va(! | %41
 z!8va)! [G,G] [A,A][=B,=B] [Ee] [DFGBd]3 | [^F,^F] [G,G]2 [_E_G_Ace]- [EGAce]4!8va(! | %43
 z!8va)! [_A,_A] [B,B][Cc] [Ee] [DFG=Bd]3 | [^F,^F] [G,G]2 [^DFA=B^d]- [DFABd]4!8va(! | %45
 z!8va)! [=B,=B] [^C^c][^D^d] [Cc] [B,B]3 | [df][_e_g]b[Ad] [Be]g[FA][_GB] | %47
 e [_E_G]2 [_EGB]- [EGB]3 [df]- | [df][e_g]b[=Bd] [ce]g[GB][_Ac] | e E2 [E_G_A]- [EGA]3 [_df]- | %50
 [df]_d'[_ce]_c' [B_d]b[_Ac]d | [_GB_g] [_d_d']2 [Bb] [ceac'] [FAef]2 [B=dfb]- | %52
 [Bdfb]f (3[A^cg]fg [Bdb]!8va(!f' (3[a^c'g']f'g' |1 [bd'b']!8va)!fga (3[Aeg]ag [Aef]2 :|2 %54
!8va(! [bd'b']2 z2 [a^c'=e'a']2 (3[aa'][=b=b'][c'^c''] || %55
 (3z [^c'^c''][d'd''] (3z [^g^g'][aa'] (3z [=e=e'][ff']!8va)! (3z [^cc'][dd'] | %56
 (3z [^G^g][Aa] (3z [=E=e][Ff] [Dd][Ff][=G=g][^G^g] | %57
 [Adfa][Ff][Dd][=E=e] [FA^cf] [EGce]2 [DFAd]- | [DFAd]2 z2 [dfad']2!8va(! (3[aa'][bb'][=b=b'] | %59
 (3z [=b=b'][c'c''] (3z [^f^f'][gg'] (3z [dd'][ee']!8va)! (3z [=Bb][cc'] | %60
 (3z [^F^f][Gg] (3z [Dd][Ee] [Cc][Ee][=F=f][^F^f] | [Gceg][Ee][Cc][Dd] [EG=Be] [DFGBd]2 [CEGc]- | %62
 [CEGc]2 z2 [cegc']2 (3CD^D | (3=EGE CD EG (3cd^d | (3=ege cd eg (3[cc'][dd'][e=e'] | %65
 [ff'][ac'][=e=e'][_e_e'] [ac'][cc'][Bb]f | [Aa][ce][_A_a][Gg] [ce][_G_g][ce][Ff] || %67
 [=E=e] [Ff]2 [dfbd']- [dfbd']d[f=bd']d | [fad'][Ff][Gg][Aa] [defd'][cc'][Aea][Ff] | %69
 [=E=e] [Ff]2 [dfg=bd']- [dfgbd'][fgb][dd'][fgb] | [dd'][Gg][Aa][=B=b] [ee'][dfgbd'][Bb][Gg] | %71
 [^F^f] [Gg]2 [_e_g_ac'e']- [egac'e'][gac'][ee'][gac'] | %72
 [ee'][_A_a][Bb][cc'] [ee'][dfg=bd'][=Bb][Gg] | [^F^f] [Gg]2 [^dfa=b^d']- [dfabd'][ab][dd'][ab] | %74
 [^d^d'][=B^fa=b][^c^c'][dd'] (3[cac'][dd'][cc'] [Bb][=d=f]- | [df][_e_g]b[Ad] [Be]g[FA][_GB] | %76
 e [_E_G]2 [_EGB]- [EGB]3 [df]- | [df][e_g]b[=Bd] [ce]g[GB][_Ac] | e [CE]2 [E_G_A]- [EGA]3 [_df]- | %79
 [df]_d'[_ce]_c' [B_d]b[_Ac]d | [_GB_g] [_d_d']2 [Bb] [ceac'] [FAef]2 [B=dfb]- | %81
 [Bdfb]f (3[A^cg]fg [Bdb]!8va(!f' (3[a^c'g']f'g' | [d'b']2!8va)! z2 [Bdfb]4 |] %83
V:2
 [C,E,B,]4 z4 | z8 | z8 | z2 z C,,- [C,,G,,E,]3 G,,- |: %4
 [G,,D,B,]2 .[G,B,D]C,,- [C,,G,,E,]2 .[G,B,CE]F,,- | %5
 [F,,C,A,]2 .[A,CF]A,,- [A,,F,C]_A,,[A,,F,_C]G,,- | %6
 [G,,D,B,]2 .[G,B,D]C,,- [C,,G,,E,]2 .[G,B,CE]F,,- | [F,,C,A,]2 .[A,CF]2 [A,,A,]2 .[A,CF]2 | %8
 [B,,B,]2 .[G,B,D]2 [G,,G,]D,,-[D,,D,]C,,- | [C,,C,]2 .[A,CF]2 [F,,F,]2 .[A,CF]G,,- | %10
 [G,,D,F,] z z2 z4 | [C,G,B,] z z2 z2 z G,,- | [G,,D,B,]2 .[G,B,D]C,,- [C,,G,,E,]2 .[G,B,CE]F,,- | %13
 [F,,C,A,]2 .[A,CF]A,,- [A,,F,C]_A,,[A,,F,_C]G,,- | %14
 [G,,D,B,]2 .[G,B,D]C,,- [C,,G,,E,]2 .[G,B,CE]A,- | %15
 [A,C_E_G]^G,-[G,=B,DF]=G,- [G,_B,_D_F]^F,-[F,A,CE]=F,- | %16
 [F,B,D]2 [D,F,B,]2 [B,,,B,,]2 .[F,B,_D]2 | [A,,,A,,]2 .[F,A,C]2 .[A,CF]2 .[CFA]2 | %18
 [B,,,B,,]2 .[F,B,_D]2 [C,,C,]2 .[G,B,CE]F,,- |1 (3F,,A,F, [^F,,^D,]G,,- [G,,E,]G,-.[G,B,CE]G,, :|2 %20
 [F,,C,A,]2 z2 [F,,F,]2 [_E,,_E,]2 |: [D,,D,]8- | [D,,D,]4 [DFA] C,,-[C,,G,,E,]F,,- | %23
 [F,,C,A,]2 .[A,CF]A,,- [A,,E,G,]2 .[G,A,^CE]A,,- | [A,,D,^F,]2 .[A,CD^F]2 [D,,D,]2 .[A,CDF]2 | %25
 G,,B,,D,G, D,B,,F,G,,- | [G,,E,G,]2 .[G,B,CE]2 [C,,C,]2 .[G,B,CE]2 | z8 | x8 | [D,,D,]8- | %30
 [D,,D,]4 [DFA] C,,-[C,,G,,E,]F,,- | [F,,C,A,]2 .[A,CF]A,,- [A,,E,G,]2 .[G,A,^CE]A,,- | %32
 [A,,D,^F,]2 .[A,CD^F]2 [D,,D,]2 .[A,CDF]2 | G,,B,,D,G, D,B,,F,G,,- | %34
 [G,,E,G,]2 .[G,B,CE]2 [C,,C,]2 .[G,B,CE]2 | [B,,,B,,]2 [F,B,_D]2 [B,DF]2 [DFB]2 |1 %36
 [F,,F,]2 z2 [F,,F,]2 [_E,,_E,]2 :|2 [CFA]2 [C,,C,]2 [F,,,F,,]4 |: %38
[K:Bb] [B,,,B,,]2 .[D,F,B,]2 [B,,,B,,]=B,,,-[B,,,=B,,]C,,- | %39
 [C,,C,]2 .[C,E,F,A,]2 [F,,,F,,]2 .[C,E,F,A,]2 | %40
 [B,,,B,,]2 [_A,,,_A,,]2 [G,,,G,,]2 .[D,F,G,][^C,,^C,] | %41
 [D,,D,]2 .[D,F,G,]2 [G,,,G,,]2 .[D,F,G,]2 | [C,,C,]2 .[E,G,C]2 [_A,,,_A,,]2 .[E,_G,_A,]2 | %43
 [E,,E,]2 .[E,_G,_A,]2 [D,,D,]2 .[D,F,=G,]2 | [C,,C,]2 .[E,G,C]2 [=B,,,=B,,]2 .[B,,^D,^F,A,]2 | %45
 [^F,,^F,]2 .[=B,,^D,F,A,]2 [=B,,,B,,]2 (3.[B,,D,F,A,][^C,,^C,][D,,=D,] | %46
 [E,,E,]2 .[_G,B,E]2 [B,,,B,,]2 .[G,B,E]2 | %47
 [E,,E,]2 .[_G,B,_D]2 [E,,E,][_D,,_D,][B,,,B,,][A,,,A,,] | %48
 [_A,,,_A,,]2 .[_G,_A,CE]2 [E,,E,]2 .[G,A,CE]2 | [_A,,,_A,,]2 .[_G,_A,CE]2 [E,,E,]2 .[G,A,CE]2 | %50
 [_D,,_D,]2 .[F,_A,_D]2 [D,,D,]2 .[F,A,D]_G,,- | [G,,_D,B,]2 .[_G,B,_D]F,,- [F,,C,A,]2 .[F,A,C]2 | %52
 [B,,,B,,]2 [F,A,E]2 [F,B,D]2[K:treble] [FAe]2 |1 [FBd]2 z[K:bass] F,- [F,A,E]2 [F,,,F,,]2 :|2 %54
 [FBd]2 z2 [A^c=eg]4 || [dfa]2 [Adf]2 [FAd]2 [DFA]2 | [A,DF]2 [F,A,D]2 [D,F,A,]2 z D,,- | %57
 [D,,A,,F,]2 .[F,A,D]2 [A,,,A,,]2 .[=E,G,A,^C]2 | [D,,D,][^G,,^G,][A,,A,][F,,F,] [D,,D,]2 z2 | %59
 [ceg]2 [Gce]2 [EGc]2 [CEG]2 | [G,CE]2 [E,G,C]2 [C,E,G,]2 z C,,- | %61
 [C,,G,,E,]2 .[E,G,C]2 [G,,,G,,]2 .[D,F,G,]2 | [C,,C,][^F,,^F,][G,,G,][E,,E,] [C,,C,]2 z2 | %63
 [C,=E,B,]8 | [C=EB]8 |[K:bass] [F,F]2 [=E,=E][_E,_E]- [E,E][C,C] [B,,B,]2 | %66
 [A,,A,]2 [_A,,_A,][G,,G,]- [G,,G,] [_G,,_G,]2 [F,,F,] || %67
 [B,,,B,,]2 [F,B,D]2 [B,,,B,,]=B,,,-[B,,,=B,,]C,,- | [C,,C,]2 [F,A,CE]F,,- [F,,,F,,]2 [F,A,CE]F,, | %69
 [B,,,B,,]2 (3[B,,,B,,][A,,,A,,][_A,,,_A,,] [G,,,G,,]2 [D,F,G,][^C,,^C,] | %70
 [D,,D,]2 [D,F,G,][=B,,,=B,,] [G,,,G,,]2 [D,F,G,]2 | [C,,C,]2 [E,G,C]2 [_A,,,_A,,]2 [E,_G,_A,C]E, | %72
 [_A,,_A,]2 [E,_G,A,C]G,,- [G,,D,F,]2 [F,=G,=B,D]2 | %73
 [C,,C,]2 [E,G,C]2 [=B,,,=B,,]2 (3[^D,,^D,][=E,,=E,][^E,,^E,] | %74
 [^F,,^F,]2 [F,A,=B,^D]F,, [=B,,,=B,,]2 (3[F,A,B,D][^C,,^C,][D,,D,] | %75
 [E,,E,]2 [_G,B,E]B,,- [B,,,B,,]2 [G,B,E]B,, | %76
 [E,,E,]2 [_G,B,_D]2 [B,,,B,,][C,,C,][B,,,B,,][A,,,A,,] | %77
 [_A,,,_A,,]2 [_G,_A,CE]B,, [E,,E,]2 [G,A,CE]A,,- | [_A,,,A,,]2 [_G,_A,CE]2 [E,,E,]2 [G,A,CE]2 | %79
 [_D,,_D,]2 [F,_A,_D]2 [_A,,,_A,,]2 [F,A,D]_G,,- | [G,,_D,B,]2 [_G,B,_D]F,,- [F,,C,A,]2 [F,A,C]2 | %81
 [B,,,B,,]2 [F,A,E]2 [F,B,D]2[K:treble] [FAe]2 | [FBd]2[K:bass] [B,,,B,,]2 [F,B,D]4 |] %83
V:3
 x8 | [CEB]4 x2 B=B | c2 BG- GED_D | C2 x6 |: x8 | x8 | x8 | x8 | x8 | x8 | x8 | x8 | x8 | x8 | %14
 x8 | x8 | x8 | x4!8va(! x4!8va)! | x8 |1 x8 :|2 x8 |: x8 | x8 | x8 | x8 | B2 B2 B B2 B- | %26
 x!8va(! x7 | x4!8va)! x4 | (3CDE (3=G^GA (3=c^c=d x2 | x8 | x8 | x8 | x8 | B2 B2 B B2 B- | %34
 x!8va(! x7 | x8 |1 x!8va)! x7 :|2!8va(! x2!8va)! x6 |:[K:Bb] x4 z g [Bdf]!8va(! g' | %39
 [ae'f']!8va)! x7 | x4 z a [=Bfg]!8va(! a' | [=bf'g']!8va)! x7 | x4 z b [c_g_a]!8va(! b' | %43
 [c'_g'_a']!8va)! x7 | x4 z ^c' [^da=b]!8va(! ^c'' | [^d'a'=b']!8va)! x7 | x8 | x8 | x8 | x8 | x8 | %51
 x8 | x5!8va(! x3 |1 x!8va)! x7 :|2!8va(! x8 || x6!8va)! x2 | x8 | x8 | x6!8va(! x2 | x6!8va)! x2 | %60
 x8 | x8 | x8 | x8 | x8 | x8 | x8 || x8 | x8 | x8 | x8 | x8 | x8 | x8 | x8 | x8 | x8 | x8 | x8 | %79
 x8 | x8 | x5!8va(! x3 | x2!8va)! x6 |] %83
V:4
 x8 | x8 | x8 | x8 |: x8 | x8 | x8 | x8 | x8 | x8 | x8 | x8 | x8 | x8 | x8 | x8 | x8 | x8 | x8 |1 %19
 x8 :|2 x8 |: z3 [D,F,_A,]- [D,F,A,]3 [A,DF]- | [A,DF]3 [DF_A]- x4 | x8 | x8 | x8 | x8 | x8 | x8 | %29
 z3 [D,F,_A,]- [D,F,A,]3 [A,DF]- | [A,DF]3 [DF_A]- x4 | x8 | x8 | x8 | x8 | x8 |1 x8 :|2 x8 |: %38
[K:Bb] x8 | x8 | x8 | x8 | x8 | x8 | x8 | x8 | x8 | x8 | x8 | x8 | x8 | x8 | x6[K:treble] x2 |1 %53
 x3[K:bass] x5 :|2 x8 || x8 | x8 | x8 | x8 | x8 | x8 | x8 | x8 | x8 | x8 |[K:bass] x8 | x8 || x8 | %68
 x8 | x8 | x8 | x8 | x8 | x8 | x8 | x8 | x8 | x8 | x8 | x8 | x8 | x6[K:treble] x2 | %82
 x2[K:bass] x6 |] %83

